SPARK17/help_fr/_apps/images/schematics/RLCdischarge.svg

<?xml version="1.0" encoding="UTF-8" standalone="no"?>
<svg
   xmlns:dc="http://purl.org/dc/elements/1.1/"
   xmlns:cc="http://creativecommons.org/ns#"
   xmlns:rdf="http://www.w3.org/1999/02/22-rdf-syntax-ns#"
   xmlns:svg="http://www.w3.org/2000/svg"
   xmlns="http://www.w3.org/2000/svg"
   xmlns:sodipodi="http://sodipodi.sourceforge.net/DTD/sodipodi-0.dtd"
   xmlns:inkscape="http://www.inkscape.org/namespaces/inkscape"
   version="1.1"
   id="LCRcircuit"
   width="594"
   height="105.27976"
   viewBox="-6 -6 594 105.27976"
   sodipodi:docname="RLCdischarge.svg"
   inkscape:version="0.92.1 r15371">
  <metadata
     id="metadata69">
    <rdf:RDF>
      <cc:Work
         rdf:about="">
        <dc:format>image/svg+xml</dc:format>
        <dc:type
           rdf:resource="http://purl.org/dc/dcmitype/StillImage" />
        <dc:title></dc:title>
      </cc:Work>
    </rdf:RDF>
  </metadata>
  <defs
     id="defs67" />
  <sodipodi:namedview
     pagecolor="#ffffff"
     bordercolor="#666666"
     borderopacity="1"
     objecttolerance="10"
     gridtolerance="10"
     guidetolerance="10"
     inkscape:pageopacity="0"
     inkscape:pageshadow="2"
     inkscape:window-width="1368"
     inkscape:window-height="746"
     id="namedview65"
     showgrid="false"
     fit-margin-top="0"
     fit-margin-left="0"
     fit-margin-right="0"
     fit-margin-bottom="0"
     inkscape:zoom="0.96989967"
     inkscape:cx="294"
     inkscape:cy="67.265517"
     inkscape:window-x="0"
     inkscape:window-y="0"
     inkscape:window-maximized="1"
     inkscape:current-layer="g62" />
  <desc
     id="desc2">
XCircuit Version 3.7
File &quot;LCRcircuit.ps&quot; Page 1
</desc>
  <g
     id="g62"
     style="stroke:#000000"
     transform="translate(-5,-4.9857575)">
    <g
       transform="translate(16,48)"
       id="g8"
       style="fill:#000000">
      <text
         font-size="40"
         id="text6"
         style="font-size:40px;font-family:Helvetica;stroke:none">
        <tspan
           x="0"
           y="0"
           id="tspan4">OD1</tspan>
      </text>
    </g>
    <g
       transform="translate(240,48)"
       id="g14"
       style="fill:#000000">
      <text
         font-size="40"
         id="text12"
         style="font-size:40px;font-family:Helvetica;stroke:none">
        <tspan
           x="0"
           y="0"
           id="tspan10">A1</tspan>
      </text>
    </g>
    <g
       transform="translate(496,48)"
       id="g20"
       style="fill:#000000">
      <text
         font-size="40"
         id="text18"
         style="font-size:40px;font-family:Helvetica;stroke:none">
        <tspan
           x="0"
           y="0"
           id="tspan16">GND</tspan>
      </text>
    </g>
    <path
       d="M 432,32 H 374"
       id="path22"
       inkscape:connector-curvature="0"
       style="fill:none;stroke:#000000;stroke-width:2;stroke-linecap:round;stroke-linejoin:bevel" />
    <path
       d="m 304,32 h 58"
       id="path24"
       inkscape:connector-curvature="0"
       style="fill:none;stroke:#000000;stroke-width:2;stroke-linecap:round;stroke-linejoin:bevel" />
    <path
       d="M 362,64 V 0"
       id="path26"
       inkscape:connector-curvature="0"
       style="fill:none;stroke:#000000;stroke-width:2;stroke-linecap:round;stroke-linejoin:bevel" />
    <path
       d="M 374,64 V 0"
       id="path28"
       inkscape:connector-curvature="0"
       style="fill:none;stroke:#000000;stroke-width:2;stroke-linecap:round;stroke-linejoin:bevel" />
    <path
       d="m 178,32 c 4,-20 20,-20 24,0"
       id="path30"
       inkscape:connector-curvature="0"
       style="fill:none;stroke:#000000;stroke-width:2;stroke-linecap:round;stroke-linejoin:bevel" />
    <path
       d="m 178,32 c -4,20 8,20 4,0"
       id="path32"
       inkscape:connector-curvature="0"
       style="fill:none;stroke:#000000;stroke-width:2;stroke-linecap:round;stroke-linejoin:bevel" />
    <path
       d="m 118,32 c 4,-20 20,-20 24,0"
       id="path34"
       inkscape:connector-curvature="0"
       style="fill:none;stroke:#000000;stroke-width:2;stroke-linecap:round;stroke-linejoin:bevel" />
    <path
       d="m 138,32 c 4,-20 20,-20 24,0"
       id="path36"
       inkscape:connector-curvature="0"
       style="fill:none;stroke:#000000;stroke-width:2;stroke-linecap:round;stroke-linejoin:bevel" />
    <path
       d="m 158,32 c 4,-20 20,-20 24,0"
       id="path38"
       inkscape:connector-curvature="0"
       style="fill:none;stroke:#000000;stroke-width:2;stroke-linecap:round;stroke-linejoin:bevel" />
    <path
       d="m 138,32 c -4,20 8,20 4,0"
       id="path40"
       inkscape:connector-curvature="0"
       style="fill:none;stroke:#000000;stroke-width:2;stroke-linecap:round;stroke-linejoin:bevel" />
    <path
       d="m 158,32 c -4,20 8,20 4,0"
       id="path42"
       inkscape:connector-curvature="0"
       style="fill:none;stroke:#000000;stroke-width:2;stroke-linecap:round;stroke-linejoin:bevel" />
    <path
       d="m 202,32 h 22"
       id="path44"
       inkscape:connector-curvature="0"
       style="fill:none;stroke:#000000;stroke-width:2;stroke-linecap:round;stroke-linejoin:bevel" />
    <path
       d="M 118,32 H 96"
       id="path46"
       inkscape:connector-curvature="0"
       style="fill:none;stroke:#000000;stroke-width:2;stroke-linecap:round;stroke-linejoin:bevel" />
    <path
       d="M 0,0 V 64 H 96 V 0 Z"
       id="path48"
       inkscape:connector-curvature="0"
       style="fill:none;stroke:#000000;stroke-width:2;stroke-linecap:round;stroke-linejoin:bevel" />
    <path
       d="m 224,0 v 64 h 80 V 0 Z"
       id="path50"
       inkscape:connector-curvature="0"
       style="fill:none;stroke:#000000;stroke-width:2;stroke-linecap:round;stroke-linejoin:bevel" />
    <path
       d="M 480,0 V 64 H 592 V 0 Z"
       id="path52"
       inkscape:connector-curvature="0"
       style="fill:none;stroke:#000000;stroke-width:2;stroke-linecap:round;stroke-linejoin:bevel" />
    <g
       transform="translate(384,80)"
       id="g58"
       style="fill:#000000">
      <text
         font-size="40"
         id="text56"
         style="font-size:40px;font-family:Helvetica;stroke:none"
         x="-9.2793102"
         y="15.465517">
        <tspan
           x="-9.2793102"
           y="15.465517"
           id="tspan54">0,1µF</tspan>
      </text>
    </g>
    <path
       d="m 432,32 h 48"
       id="path60"
       inkscape:connector-curvature="0"
       style="fill:none;stroke:#000000;stroke-width:2;stroke-linecap:round;stroke-linejoin:bevel" />
  </g>
</svg>

<svg xmlns="http://www.w3.org/2000/svg"
   xmlns:xlink="http://www.w3.org/1999/xlink"
   version="1.1"
   id="LCRcircuit" width="100%" height="100%"  viewBox="-6 -6 598 86">
<desc>
XCircuit Version 3.7
File "LCRcircuit.ps" Page 1
</desc>
<g stroke="black">
<g transform="matrix(   1    0   -0    1  16  48)" fill="#000000" >
<text stroke="none" font-family="Helvetica" font-size="40" ><tspan x="0" y="0">OD1</tspan>
</text></g>
<g transform="matrix(   1    0   -0    1 240  48)" fill="#000000" >
<text stroke="none" font-family="Helvetica" font-size="40" ><tspan x="0" y="0">A1</tspan>
</text></g>
<g transform="matrix(   1    0   -0    1 496  48)" fill="#000000" >
<text stroke="none" font-family="Helvetica" font-size="40" ><tspan x="0" y="0">GND</tspan>
</text></g>
<path d="M432,32 L374,32 " fill="none" stroke-width="2" stroke-linejoin="bevel" stroke-linecap="round" stroke="#000000" />
<path d="M304,32 L362,32 " fill="none" stroke-width="2" stroke-linejoin="bevel" stroke-linecap="round" stroke="#000000" />
<path d="M362,64 L362,0 " fill="none" stroke-width="2" stroke-linejoin="bevel" stroke-linecap="round" stroke="#000000" />
<path d="M374,64 L374,0 " fill="none" stroke-width="2" stroke-linejoin="bevel" stroke-linecap="round" stroke="#000000" />
<path d="M178,32 C182,12 198,12 202,32 " fill="none" stroke-width="2" stroke-linejoin="bevel" stroke-linecap="round" stroke="#000000" />
<path d="M178,32 C174,52 186,52 182,32 " fill="none" stroke-width="2" stroke-linejoin="bevel" stroke-linecap="round" stroke="#000000" />
<path d="M118,32 C122,12 138,12 142,32 " fill="none" stroke-width="2" stroke-linejoin="bevel" stroke-linecap="round" stroke="#000000" />
<path d="M138,32 C142,12 158,12 162,32 " fill="none" stroke-width="2" stroke-linejoin="bevel" stroke-linecap="round" stroke="#000000" />
<path d="M158,32 C162,12 178,12 182,32 " fill="none" stroke-width="2" stroke-linejoin="bevel" stroke-linecap="round" stroke="#000000" />
<path d="M138,32 C134,52 146,52 142,32 " fill="none" stroke-width="2" stroke-linejoin="bevel" stroke-linecap="round" stroke="#000000" />
<path d="M158,32 C154,52 166,52 162,32 " fill="none" stroke-width="2" stroke-linejoin="bevel" stroke-linecap="round" stroke="#000000" />
<path d="M202,32 L224,32 " fill="none" stroke-width="2" stroke-linejoin="bevel" stroke-linecap="round" stroke="#000000" />
<path d="M118,32 L96,32 " fill="none" stroke-width="2" stroke-linejoin="bevel" stroke-linecap="round" stroke="#000000" />
<path d="M0,0 L0,64 96,64 96,0 z" fill="none" stroke-width="2" stroke-linejoin="bevel" stroke-linecap="round" stroke="#000000" />
<path d="M224,0 L224,64 304,64 304,0 z" fill="none" stroke-width="2" stroke-linejoin="bevel" stroke-linecap="round" stroke="#000000" />
<path d="M480,0 L480,64 592,64 592,0 z" fill="none" stroke-width="2" stroke-linejoin="bevel" stroke-linecap="round" stroke="#000000" />
<g transform="matrix(   1    0   -0    1 384  80)" fill="#000000" >
<text stroke="none" font-family="Helvetica" font-size="40" ><tspan x="0" y="0">.1uF</tspan>
</text></g>
<path d="M432,32 L480,32 " fill="none" stroke-width="2" stroke-linejoin="bevel" stroke-linecap="round" stroke="#000000" />
</g>
</svg>
